coreui/free/cil-hand-point-left.svg

<svg xmlns="http://www.w3.org/2000/svg" viewBox="0 0 512 512">
  <path fill="var(--ci-primary-color, currentColor)" d="M397.784,472h-159.7a24.072,24.072,0,0,1-23.124-17.576L179.838,328H68a52,52,0,0,1,0-104H248V199.582l-22.6-18.494A90.41,90.41,0,0,1,214.607,51.58a24,24,0,0,1,34.149-2.006L496,272.891V417.059L410.132,468.58A24,24,0,0,1,397.784,472ZM244.161,440H395.568L464,398.941V287.109L233.75,79.141a58.437,58.437,0,0,0,11.91,77.18l34.34,28.1V256H68a20,20,0,0,0,0,40H204.162ZM227.307,73.321l.023.02Z" class="ci-primary"/>
</svg>

<svg viewBox="0 0 512 512" xmlns="http://www.w3.org/2000/svg"><path d="M397.784 472h-159.7v0c-10.78-.03-20.22-7.21-23.13-17.58l-35.13-126.43H67.98v0c-28.72 0-52-23.29-52-52 0-28.72 23.28-52 52-52h180v-24.42l-22.6-18.5v0c-38.65-31.62-44.35-88.58-12.73-127.23 .63-.78 1.27-1.54 1.93-2.29v0c8.72-9.98 23.89-10.99 33.86-2.26 .09.08.18.16.28.25l247.244 223.31v144.16L410.1 468.53v0c-3.74 2.23-8 3.42-12.35 3.42Zm-153.623-32h151.4l68.43-41.06V287.1L233.74 79.13v0c-16.33 24.99-11.2 58.27 11.91 77.18l34.34 28.1v71.57h-212v0c-11.05 0-20 8.95-20 20 0 11.04 8.95 20 20 20H204.15ZM227.301 73.32l.02.02Z"/></svg>
